X: 36858
T: Ships In Full Sail, The
R: jig
M: 6/8
K: Amajor
|:F|EAA cAA|eAA cAA|fga ecA|Bdc BAF|
EAA cAA|eAA cAA|faf ecA|1 dBG A2:|2 dBG A2f||
|:eaa c'aa|bab c'af|eaa c'aa|b3 baf|
eaa c'aa|bab c'ae|fga ecA|1 dBG A2 f:|2 dBG Acd||
|:e2f ecA|fef a2f|eaf ecA|B3 Bcd|
e2f ecA|fef a2f|ecA BAB|1 cAA A2 f:|2 cAA A3||

